X: 1766
T:Amhr\'an na bhFiann
T:The Soldier's Song
M:4/4
S:Jerome S. Coburn, Ir-trad, 5/97
N:Ireland Nat'l anthem
K:D
A2 | F2 DF A3 A | Bcde f3 e | d2 B2 A2 F2 | A3 G E2 z A |
F2 DF A3 A | Bcde f2 z
 d | c3 c B3 B | A2 A4 A2 |
G3 G GEFG | A3 B A3 d | c3 B c2 B2 | A2 G2 E2 z A |
F2 DF A3 A | Bcde f2 dB | A d2 f e3 d | d6 z2 |
d3 e f2 d2 | A4 z2 A2 | B3 B G2 B2 | A4 A4 |
d4 c4 | B6 cd | e3 f e2 B2 | c6 z2 |
d3 e f2 d2 | A4 z2 A2 | B3 B G2 B2 | A4 A3 A |
c4 c3 B | c2 c2 B3 A | A4 z2 A2 |
G3 G GEFG | A3 B A3 d | c3 B c2 B2 | A2 G2 E2 z A |
F2 DF A3 A | Bcde f2 dB | A d2 f e3 d | d6 ||**
